!!!COA:	Josquin des Prez
!!!CDT:	~1450-1521/08/27
!!!OPR:	Missa L'ami Baudichon
!!!ONM:	4
!!!OTL:	Sanctus
!!!AGN:	Mass; Sanctus
!!!SCT:	NJE 5.1
!!!SCA:	New Josquin Edition 5.1
!!!voices:	4
!!!voices-OPR:	4
**kern	**kern	**kern	**kern
*staff4	*staff3	*staff2	*staff1
*Ivox	*Ivox	*Ivox	*Ivox
*I"Bassus	*I"Tenor	*I"Altus	*I"Superius
*I'B	*I'T	*I'A	*I'S
*>[A,B,C,D,E,F,C]	*>[A,B,C,D,E,F,C]	*>[A,B,C,D,E,F,C]	*>[A,B,C,D,E,F,C]
*>A	*>A	*>A	*>A
*clefF4	*clefGv2	*clefGv2	*clefG2
*k[]	*k[]	*k[]	*k[]
*M3/1	*M3/1	*M3/1	*M3/1
*met(O)	*met(O)	*met(O)	*met(O)
=1-	=1-	=1-	=1-
!	!LO:TX:Z=10:X=-40:t=Canon&colon; In duplo provulgatur [all breves in 2&colon;1 augmentation]	!	!
!	!LO:N:vis:0.	!	!
0.r	0.r	0c	0cc
.	.	2e\	1cc
.	.	2f\	.
=2	=2-	=2	=2
0.r	0.ryy	1g	1b
.	.	1.f	1.a
.	.	2e\	2g/
=3	=3	=3	=3
!	!LO:N:vis:0.	!	!
0.r	0.r	1e	1g
.	.	2d\	1.f
.	.	2.d\	.
.	.	4c\	.
.	.	2A/	2e/
=4	=4-	=4	=4
0.r	0.ryy	2G/	1e
.	.	2c\	.
.	.	2d\	1.d
.	.	1B	.
.	.	2A/	2c/
=5	=5	=5	=5
!	!LO:N:vis:0.	!	!
0.r	0.r	0.c	1c
.	.	.	1r
.	.	.	2r
.	.	.	[2g/
=6	=6-	=6	=6
0.r	0.ryy	1r	2g/]
.	.	.	2f/
.	.	2r	2e/
.	.	1g	4d/
.	.	.	4c/
.	.	.	1B
.	.	2f\	.
=7	=7	=7	=7
!	!LO:N:vis:0.	!	!
0.r	0.r	2e\	1c
.	.	4d\	.
.	.	4c\	.
.	.	1B	1d
.	.	1c	2r
.	.	.	[2g/
=8	=8-	=8	=8
0.r	0.ryy	1d	2g/]
.	.	.	2f/
.	.	2r	2e/
.	.	1g	4d/
.	.	.	4c/
.	.	.	1B
.	.	2f\	.
=9	=9	=9	=9
!	!LO:N:vis:0.	!	!
0.r	0.r	2e\	2c/
.	.	4d\	2e/
.	.	4c\	.
.	.	1B	1d
.	.	2c\	2c/
.	.	2e\	2g/
=10	=10-	=10	=10
0.r	0.ryy	1d	2f/
.	.	.	2d/
.	.	2c\	1e
.	.	2g\	.
.	.	2f\	1d
.	.	2d\	.
=11	=11	=11	=11
!	!LO:N:vis:0.	!	!
0.r	0.r	1e	2c/
.	.	.	2g/
.	.	2.d\	2f/
.	.	.	2.a/
.	.	4c\	.
.	.	2.A/	.
.	.	.	4g/
.	.	.	[2e/
.	.	4G/	.
=12	=12-	=12	=12
0.r	0.ryy	2A/	4e/]
.	.	.	4f/
.	.	2B\	2.g/
.	.	2.c\	.
.	.	.	4c/
.	.	.	1g
.	.	4B\	.
.	.	2G/	.
.	.	2c\	2e/
=13	=13	=13	=13
!	!LO:N:vis:0.	!	!
0.r	0.r	2d\	1d
.	.	2B\	.
.	.	2.c\	2r
.	.	.	1c
.	.	4B\	.
.	.	2A/	.
.	.	2G/	2e/
=14	=14-	=14	=14
0.r	0.ryy	2B\	2d/
.	.	2A/	2f/
.	.	2c\	2e/
.	.	2B\	2g/
.	.	2d\	2f/
.	.	2c\	2a/
=15	=15	=15	=15
!	!LO:N:vis:0.	!	!
0.r	0.r	2e\	2g/
.	.	2d\	2b\
.	.	2f\	2a/
.	.	2e\	2cc\
.	.	2.g\	2b\
.	.	.	2dd\
.	.	4f\	.
=16	=16-	=16	=16
0.r	0.ryy	4e\	2cc\
.	.	4d\	.
.	.	1c	2.ee\
.	.	.	4dd\
.	.	2e\	1cc
.	.	1d	.
.	.	.	2b\
=17	=17	=17	=17
!	!LO:N:vis=0	!	!
0.C	[y0.e	0c	0.cc
.	.	1c	.
=18	=18-	=18	=18
0c	0e]yy	0A	1r
.	.	.	1r
1A	1e	1c	1cc
=19	=19	=19	=19
!	!LO:N:vis=0	!	!
2.B-\	[y0.d	1G	2.dd\
4A\	.	.	4cc\
2F\	.	1r	2a/
1G	.	.	1b-
.	.	1G	.
4F\	.	.	4a/
4E\	.	.	4g/
=20	=20-	=20	=20
0D	0d]yy	0A	0.f
1BB-	1d	1B-	.
=21	=21	=21	=21
!	!LO:N:vis=0	!	!
[0.C	[y0.c	1G	0.e
.	.	2r	.
.	.	2g\	.
.	.	2a\	.
.	.	2g\	.
=22	=22-	=22	=22
0C]	0c]yy	0e	2r
.	.	.	1g
.	.	.	2e/
2F\	1c	1r	2f/
2E\	.	.	2g/
=23	=23	=23	=23
!	!LO:N:vis=0	!	!
0.C	[y0.c	1g	1e
.	.	2a\	1r
.	.	1g	.
.	.	.	1g
.	.	2e\	.
=24	=24-	=24	=24
0F	0c]yy	2f\	1.a
.	.	4e\	.
.	.	4d\	.
.	.	0c	.
.	.	.	1cc
2.A\	1c	.	.
.	.	.	4b\
4B\	.	.	4a/
=25	=25	=25	=25
!	!LO:N:vis=0	!	!
0c	[y0.e	1r	1g
.	.	1r	2a/
.	.	.	2g/
1c	.	1g	2.cc\
.	.	.	4dd\
=26	=26-	=26	=26
2.C/	0e]yy	0g	1.ee
4D\	.	.	.
2.E\	.	.	.
.	.	.	4dd\
4F\	.	.	4cc\
2G\	1e	1g	2b\
2A\	.	.	2cc\
=27	=27	=27	=27
!	!LO:N:vis=0	!	!
2B-\	[y0.d	0G	1.dd
1B-i	.	.	.
4A\	.	.	4cc\
4G\	.	.	4b\
2F\	.	2A/	2a/
[2G\	.	2G/	[2b\
=28	=28-	=28	=28
2G\]	0d]yy	2.d\	4b\]
.	.	.	4cc\
2.D\	.	.	2.dd\
.	.	4c\	.
.	.	1A	.
4E\	.	.	4cc\
2F\	.	.	2a/
1G	1d	1G	1b
=29	=29	=29	=29
0.C	[0.cl	1g	1cc
.	.	2a\	1r
.	.	1g	.
.	.	.	1g
.	.	2e\	.
=30	=30-	=30	=30
2F\	0.c_	2f\	2a/
2E\	.	2g\	1g
1C	.	1e	.
.	.	.	2e/
2F\	.	1r	2f/
2E\	.	.	2g/
=31	=31	=31	=31
[0.C	0.c_	2r	1e
.	.	2g\	.
.	.	2a\	2r
.	.	2g\	2g/
.	.	2.e\	2a/
.	.	.	2g/
.	.	4f\	.
=32	=32-	=32	=32
0C]	0.c_	2g\	2.e/
.	.	2c\	.
.	.	.	4f/
.	.	2r	2g/
.	.	2g\	2c/
1r	.	2a\	2r
.	.	2g\	2g/
=33	=33	=33	=33
[0.C	0.c_	2.e\	2a/
.	.	.	2g/
.	.	4f\	.
.	.	2g\	2.e/
.	.	2a\	.
.	.	.	4f/
.	.	1e	2g/
.	.	.	2a/
=34	=34-	=34	=34
1C]	0.c_	1r	2e/
.	.	.	2.cc\
0F	.	0A 0f	.
.	.	.	4b\
.	.	.	1a
.	.	.	4g/
.	.	.	4f/
=35	=35	=35	=35
*	*	*^	*
0.Cl	0.c]	0.Gl\	0.gl/	0.el
*	*	*v	*v	*
!!LO:LB:i:g=z
=36||	=36||	=36||	=36||
*>B	*>B	*>B	*>B
*clefF4	*clefGv2	*clefGv2	*clefG2
*k[]	*k[]	*k[]	*k[]
*M3/1	*M3/1	*M3/1	*M3/1
*met(O)	*met(O)	*met(O)	*met(O)
!!section: Pleni
!!!OMD: Pleni
0.r	0.r	0.c	0cc
.	.	.	1cc
=37	=37	=37	=37
0.r	0.r	0e	1cc
.	.	.	2b\
.	.	.	2g/
.	.	1f	2a/
.	.	.	4g/
.	.	.	4f/
=38	=38	=38	=38
0.r	0.r	0g	0e
.	.	1c	1e
=39	=39	=39	=39
0.r	0.r	2B\	[0.g
.	.	2c\	.
.	.	2G/	.
.	.	2.c\	.
.	.	4B\	.
.	.	2c\	.
=40	=40	=40	=40
0.r	0.r	2G/	1g]
.	.	1c	.
.	.	.	1g
.	.	1g	.
.	.	.	1c
.	.	2e\	.
=41	=41	=41	=41
0.r	0.r	2d\	2B/
.	.	2e\	2c/
.	.	1c	2e/
.	.	.	1d
.	.	2B\	.
.	.	[2c\	2c/
=42	=42	=42	=42
0.r	0.r	2c\]	1g
.	.	2e\	.
.	.	2d\	2f/
.	.	2c\	2g/
.	.	1g	2b-i\
.	.	.	[2a/
=43	=43	=43	=43
0.r	0.r	2f\	2a/]
.	.	2g\	2g/
.	.	2e\	1cc
.	.	1d	.
.	.	.	2b\
.	.	[2c\	2cc\
=44	=44	=44	=44
0.r	0.r	2c\]	2ee\
.	.	2B\	1dd
.	.	1c	.
.	.	.	1cc
.	.	1d	.
.	.	.	2b\
=45	=45	=45	=45
0.r	0.r	[0.c	2a/
.	.	.	2.cc\
.	.	.	4b\
.	.	.	2g/
.	.	.	2a/
.	.	.	4g/
.	.	.	4f/
=46	=46	=46	=46
0.r	0.r	0c]	0e
.	.	1c	1e
=47	=47	=47	=47
0.r	0.r	4d\	1f
.	.	4c\	.
.	.	4B\	.
.	.	4A/	.
.	.	2G/	2e/
.	.	1c	2c/
.	.	.	1d
.	.	2B\	.
=48	=48	=48	=48
0.r	0.r	2.c\	2c/
.	.	.	2.g/
.	.	4B\	.
.	.	2c\	.
.	.	.	4f/
.	.	2G/	2g/
.	.	2c\	2e/
.	.	2B\	2d/
=49	=49	=49	=49
0.r	0.r	2G/	2.g/
.	.	2.c\	.
.	.	.	4f/
.	.	.	4e/
.	.	4d\	4d/
.	.	2e\	2c/
.	.	1c	2r
.	.	.	[2cc\
=50	=50	=50	=50
0.r	0.r	2.f\	4cc\]
.	.	.	4b\
.	.	.	2cc\
.	.	4e\	.
.	.	2f\	2a/
.	.	2d\	2.dd\
.	.	2.g\	.
.	.	.	4cc\
.	.	.	2dd\
.	.	4f\	.
=51	=51	=51	=51
0.r	0.r	2g\	2b\
.	.	2e\	2g/
.	.	2c\	2.cc\
.	.	2.f\	.
.	.	.	4b\
.	.	.	4a/
.	.	4e\	4g/
.	.	4d\	[2a/
.	.	4c\	.
=52	=52	=52	=52
0.r	0.r	1d	2a/]
.	.	.	2.d/
.	.	2.G/	.
.	.	.	4c/
.	.	.	2d/
.	.	4F/	.
.	.	2G/	2e/
.	.	2A/	2f/
=53	=53	=53	=53
0.r	0.r	2B\	2d/
.	.	2G/	2.g/
.	.	2.c\	.
.	.	.	4f/
.	.	.	2g/
.	.	4B\	.
.	.	2c\	2a/
.	.	2d\	2b\
=54	=54	=54	=54
0.r	0.r	2e\	2g/
.	.	2c\	2.cc\
.	.	2.f\	.
.	.	.	4b\
.	.	.	2cc\
.	.	4e\	.
.	.	2f\	2dd\
.	.	2g\	2ee\
=55	=55	=55	=55
0.r	0.r	2a\	2cc\
.	.	2f\	2.dd\
.	.	2g\	.
.	.	.	4g/
.	.	2e\	2g/
.	.	1d	2a/
.	.	.	2b\
=56	=56	=56	=56
0.r	0.r	1c	2cc\
.	.	.	2.a/
.	.	2d\	.
.	.	.	4d/
.	.	2B\	2d/
.	.	1A	2e/
.	.	.	2f/
=57	=57	=57	=57
*	*	*M3/1	*
*	*	*met(3)	*
0.r	0.r	3%2G	2.g/
.	.	3c\	.
.	.	.	4a/
.	.	3d\	2b\
.	.	3%2e	.
.	.	.	2.cc\
.	.	3%2f	.
.	.	.	4b\
.	.	.	4a/
.	.	3e\	.
.	.	.	4g/
=58	=58	=58	=58
0.r	0.r	3%2d	2b\
.	.	.	2.a/
.	.	3c\	.
.	.	3d\	.
.	.	.	4g/
.	.	3%2B	.
.	.	.	1g
.	.	3c\	.
.	.	3%2A	.
.	.	.	2f#i/
=59	=59	=59	=59
*	*	*M3/1	*
*	*	*met(O)	*
0.r	0.r	2G/	1g
.	.	1c	.
.	.	.	2r
.	.	2e\	1cc
.	.	1d	.
.	.	.	2b\
=60	=60	=60	=60
0.r	0.r	2c\	2cc\
.	.	2.g\	2ee\
.	.	.	2.dd\
.	.	4f\	.
.	.	2.d\	.
.	.	.	4cc\
.	.	.	2a/
.	.	4c\	.
.	.	[2e-\	2g/
=61	=61	=61	=61
0.r	0.r	4e-\]	2.b-\
.	.	4d\	.
.	.	4B-i\	.
.	.	4c\	4a/
.	.	2d\	2f/
.	.	2r	2.g/
.	.	4G/	.
.	.	4A/	4f/
.	.	2Bni\	2d/
=62	=62	=62	=62
0.r	0.r	2c\	2e/
.	.	2.d\	2.f/
.	.	4c\	4e/
.	.	1c	2c/
.	.	.	1d
.	.	2B\	.
=63	=63	=63	=63
0.r	0.r	0.cl	0.cl
!!LO:LB:i:g=z
=64||	=64||	=64||	=64||
*>C	*>C	*>C	*>C
*clefF4	*clefGv2	*clefGv2	*clefG2
*k[]	*k[]	*k[]	*k[]
*	*rscale:1/2	*	*
*M2/1	*M2/1	*M2/1	*M2/1
*met(C|)	*met(C)	*met(C|)	*met(C|)
!!!OMD: Osanna
!!section: Osanna
!	!LO:N:vis=0	!	!
[0c	[y0g	[0e	[0cc
=65	=65-	=65	=65
0c]	0g]yy	0e]	0cc]
=66	=66	=66	=66
0G	0g	[0d	0b
=67	=67-	=67	=67
0D	[0f	0d]	1.a
.	.	.	2g/
=68	=68	=68	=68
1.F	0f]	0c	1.a
2G\	.	.	2b\
=69	=69-	=69	=69
1A	0f	0r	1cc
1B	.	.	1dd
=70	=70	=70	=70
!	!LO:N:vis=0	!	!
1.c	[y0e	1r	1g
.	.	[1c	[1cc
2B\	.	.	.
=71	=71-	=71	=71
1A	0e]yy	1c]	1cc]
1G	.	[1g	1b
=72	=72	=72	=72
!	!LO:N:vis=0	!	!
1c	0r	1g]	1ee
1B	.	1d	1dd
=73	=73-	=73	=73
0A	0ryy	1e	1.cc
.	.	1f	.
.	.	.	4b\
.	.	.	4a/
=74	=74	=74	=74
!	!LO:N:vis=0	!	!
[0G	[y0g	0g	0b
=75	=75-	=75	=75
0G_	0g]yy	1r	1g
.	.	1G	[1b
=76	=76	=76	=76
0G]	0g	1.B	2b\]
.	.	.	2cc\
.	.	.	[1dd
.	.	2c\	.
=77	=77-	=77	=77
[0D	[0f	1.d	2dd\]
.	.	.	2cc\
.	.	.	[1a
.	.	2c\	.
=78	=78	=78	=78
0D]	0f]	0A	2a/]
.	.	.	2g/
.	.	.	2f/
.	.	.	2e/
=79	=79-	=79	=79
0BB-	0f	0B-i	0d
=80	=80	=80	=80
!	!LO:N:vis=0	!	!
[0C	[y0e	1G	1r
.	.	1A	1c
=81	=81-	=81	=81
0C_	0e]yy	1G	1g
.	.	[1c	1a
=82	=82	=82	=82
!	!LO:N:vis=0	!	!
0C_	0r	2c\]	1g
.	.	2B\	.
.	.	1A	[1cc
=83	=83-	=83	=83
0C]	0ryy	1G	2cc\]
.	.	.	2b\
.	.	[1c	1a
=84	=84	=84	=84
!	!LO:N:vis=0	!	!
1.c	[y0e	2c\]	1g
.	.	2d\	.
.	.	1e	[1cc
2B\	.	.	.
=85	=85-	=85	=85
1A	0e]yy	1c	1cc]
1G	.	[1g	1b
=86	=86	=86	=86
1.c	0e	1g]	1g
.	.	1c	1a
2B\	.	.	.
=87	=87-	=87	=87
0G	[0d	1d	2.b\
.	.	.	4cc\
.	.	1B	2.dd\
.	.	.	4ee\
=88	=88	=88	=88
0D	0d]	0A	2.ff\
.	.	.	4ee\
.	.	.	4dd\
.	.	.	4cc\
.	.	.	[2dd\
=89	=89-	=89	=89
0G	0d	0G	4dd\]
.	.	.	4cc\
.	.	.	4b\
.	.	.	4a/
.	.	.	1b
=90	=90	=90	=90
*	*rscale:1	*	*
*	*	*^	*
0Cl	0cl	0cl\	0gl/	0ccl
*	*	*v	*v	*
!!LO:TX:rj:i:t=fine
!!LO:LB:i:g=z
=91||	=91||	=91||	=91||
*>D	*>D	*>D	*>D
*clefF4	*clefGv2	*clefGv2	*clefG2
*k[]	*k[]	*k[]	*k[]
*M2/1	*M2/1	*M2/1	*M2/1
*met(C|)	*met(C|)	*met(C|)	*met(C|)
!!!OMD: Benedictus
!!section: Benedictus
0r	0r	[0c	0g
=92	=92	=92	=92
0r	0r	0c_	1a
.	.	.	[1g
=93	=93	=93	=93
0r	0r	0c]	2g/]
.	.	.	4a/
.	.	.	4b\
.	.	.	1cc
=94	=94	=94	=94
0r	0r	0d	2b\
.	.	.	1a
.	.	.	4g/
.	.	.	4f/
=95	=95	=95	=95
0r	0r	[0e	1g
.	.	.	[1c
=96	=96	=96	=96
0r	0r	0e]	1c]
.	.	.	[1g
=97	=97	=97	=97
0r	0r	0c	2g/]
.	.	.	4a/
.	.	.	4b\
.	.	.	1cc
=98	=98	=98	=98
0r	0r	[0d	2r
.	.	.	1f
.	.	.	4g/
.	.	.	4a/
=99	=99	=99	=99
0r	0r	0d]	2b-i\
.	.	.	1a
.	.	.	4g/
.	.	.	4f/
=100	=100	=100	=100
0r	0r	1.c	1e
.	.	.	[1g
.	.	4B\	.
.	.	4A/	.
=101	=101	=101	=101
0r	0r	1.G	2g/]
.	.	.	2f/
.	.	.	1e
.	.	2A/	.
=102	=102	=102	=102
0r	0r	1B	1d
.	.	[1c	1c
=103	=103	=103	=103
0r	0r	2c\]	0d
.	.	4B\	.
.	.	4A/	.
.	.	1B	.
=104	=104	=104	=104
0r	0r	[0cl	[0e
=105	=105	=105	=105
0r	0r	0c_	1e]
.	.	.	1c
=106	=106	=106	=106
0r	0r	0c]	0cl
!!LO:LB:i:g=z
=107||	=107||	=107||	=107||
*>E	*>E	*>E	*>E
*clefF4	*clefGv2	*clefGv2	*clefG2
*k[]	*k[]	*k[]	*k[]
*M2/1	*M2/1	*M2/1	*M2/1
*met(C|)	*met()	*met(C|)	*met(C|)
!!!OMD: Qui venit
!!section: Qui venit
1C	0r	[0c	0r
1F	.	.	.
=108	=108	=108	=108
1E	0r	0c_	0r
[1C	.	.	.
=109	=109	=109	=109
1C]	0r	0c]	0r
[1c	.	.	.
=110	=110	=110	=110
2c\]	0r	0d	0r
4B\	.	.	.
4A\	.	.	.
1B	.	.	.
=111	=111	=111	=111
[0c	0r	[0e	0r
=112	=112	=112	=112
1c]	0r	0e]	0r
[1C	.	.	.
=113	=113	=113	=113
1C]	0r	0c	0r
1c	.	.	.
=114	=114	=114	=114
2B\	0r	[0d	0r
1G	.	.	.
4F\	.	.	.
4E\	.	.	.
=115	=115	=115	=115
2D\	0r	0d]	0r
2.G\	.	.	.
4A\	.	.	.
2B\	.	.	.
=116	=116	=116	=116
2c\	0r	1.c	0r
1A	.	.	.
2c\	.	4B\	.
.	.	4A/	.
=117	=117	=117	=117
2B\	0r	1.G	0r
1G	.	.	.
2F\	.	2A/	.
=118	=118	=118	=118
1G	0r	1B	0r
1E	.	[1c	.
=119	=119	=119	=119
0D	0r	2c\]	0r
.	.	4B\	.
.	.	4A/	.
.	.	1B	.
=120	=120	=120	=120
0Cl	0r	0cl	0r
!!LO:LB:i:g=z
=121||	=121||	=121||	=121||
*>F	*>F	*>F	*>F
*clefF4	*clefGv2	*clefGv2	*clefG2
*k[]	*k[]	*k[]	*k[]
*M2/1	*M2/1	*M2/1	*M2/1
*met(C|)	*met(C|)	*met(C|)	*met(C|)
!!!OMD: In nomine
!!section: In nomine
0r	0r	[0c	1c
.	.	.	[1e
=122	=122	=122	=122
0r	0r	0c_	2e/]
.	.	.	2f/
.	.	.	1g
=123	=123	=123	=123
0r	0r	0c]	1c
.	.	.	1g
=124	=124	=124	=124
0r	0r	0d	1.f
.	.	.	4e/
.	.	.	4d/
=125	=125	=125	=125
0r	0r	[0e	0c
=126	=126	=126	=126
0r	0r	0e]	1r
.	.	.	[1cc
=127	=127	=127	=127
0r	0r	0c	2cc\]
.	.	.	2dd\
.	.	.	1ee
=128	=128	=128	=128
0r	0r	[0d	2dd\
.	.	.	2.ff\
.	.	.	4ee\
.	.	.	[2dd\
=129	=129	=129	=129
0r	0r	0d]	4dd\]
.	.	.	4cc\
.	.	.	2a/
.	.	.	1b
=130	=130	=130	=130
0r	0r	1.c	1cc
.	.	.	2a/
.	.	4B\	2cc\
.	.	4A/	.
=131	=131	=131	=131
0r	0r	1.G	2b\
.	.	.	1g
.	.	2A/	4f/
.	.	.	4e/
=132	=132	=132	=132
0r	0r	1B	2d/
.	.	.	2.g/
.	.	[1c	.
.	.	.	4f/
.	.	.	[2e/
=133	=133	=133	=133
0r	0r	2c\]	2e/]
.	.	4B\	4d/
.	.	4A/	4c/
.	.	1B	1d
=134	=134	=134	=134
0r	0r	[0cl	0e
=135	=135	=135	=135
0r	0r	0c]	0cl
!!LO:TX:i:Y=40:rj:t=Osanna ut supra
=||	=||	=||	=||
*-	*-	*-	*-
!!!RDF**kern: l=long note in original notation
!!!RDF**kern: i=editorial accidental
!!!ENC:	Jesse Rodin; Victoria Chang 2012/02/07
!!!END:	2012/02/07/
!!!EED:	Jesse Rodin
!!!EEV:	2012/05/25/
!!attribution-level@Jos: 3 (tricky)
!!!ONB:	Translated from MusicXML and edited on 2012/05/25/ by Craig Sapp
!!muse2ps: T^@{OPR}^u^@{ONM}{. }@{OTL}^C^@{COA}?\n@{SCT}^i2I150v85,85,85,150c130
